X:80
T: Sipan
N: C1576C
O: China, Shandong, Rizhao
S: III, 394]
R: Xiaodiao]
M: 2/4
L: 1/16
K: E
B2B2cBce | B6GF | E3FG4 | c3BGBce | B3GFGFE | C4
B2GF | GFE2FGFE | C4B3c | e2e2c3B | GBceB3G | G4
F2E2 | FEFGB4 | cBceB3c | E3CE4
e2G2GBce | B3GFGFE | E2B,2C2E2 | F3GB2B2 | G3FE4
G4F3G | FECEB,4 | e3cB4
B2cBG2c2 | e3cB3G | B2GFGFE2 | FGFEC4
B3GGBce | G4FGFC | E4F4- | F2E2z4

